X:31
T:Out to Lunch
M:4/4
L:1/8
C:Taz Tarry, 1999
S:Copyright B.Tarry 8th. January 1999
Q:1/4=120
K:G
|:d>^cd>e d>=cB>A|G>FG>A B>G D2|E>DE>F G>FG>A|B>AB>c B2 A2|
d>^cd>e d>=cB>A|G>FG>A B>G D2|D2 E>F G2 B2|A>GF>A G2 G2:|
|:D>B,D>D E>CE>E|F>DF>A B>G D2|D>B,D>D E>CE>G|F>GA>F G2 D2|
D>B,D>D E>CE>E|F>DF>A B>G D2|E>DE>F G2 B2|A>GF>A G2 G2:|

